svg/account_hard_hat_outline.svg

<svg xmlns="http://www.w3.org/2000/svg" viewBox="0 0 24 24"><path d="M16 9c0 5.33-8 5.33-8 0h2c0 2.67 4 2.67 4 0m6 9v3H4v-3c0-2.67 5.33-4 8-4s8 1.33 8 4m-1.9 0c0-.64-3.13-2.1-6.1-2.1S5.9 17.36 5.9 18v1.1h12.2M12.5 2c.28 0 .5.22.5.5v3h1V3a3.89 3.89 0 0 1 2.25 3.75s.7.14.75 1.25H7c0-1.11.75-1.25.75-1.25A3.89 3.89 0 0 1 10 3v2.5h1v-3c0-.28.22-.5.5-.5"/></svg>

<svg xmlns="http://www.w3.org/2000/svg" id="mdi-account-hard-hat-outline" viewBox="0 0 24 24"><path d="M16 9C16 14.33 8 14.33 8 9H10C10 11.67 14 11.67 14 9M20 18V21H4V18C4 15.33 9.33 14 12 14C14.67 14 20 15.33 20 18M18.1 18C18.1 17.36 14.97 15.9 12 15.9C9.03 15.9 5.9 17.36 5.9 18V19.1H18.1M12.5 2C12.78 2 13 2.22 13 2.5V5.5H14V3C15.45 3.67 16.34 5.16 16.25 6.75C16.25 6.75 16.95 6.89 17 8H7C7 6.89 7.75 6.75 7.75 6.75C7.66 5.16 8.55 3.67 10 3V5.5H11V2.5C11 2.22 11.22 2 11.5 2" /></svg>
